!!!COM: Ce/cile Chaminade
!!!CNT: Francais
!!!TXO: Francais
!!!OTL: "Les Re^ves"
!!!LYR: Coppe/e, Franc5ois
!!!ENC: Amanda Harris
!!!YOR: Album of Songs, Volume 1
!!!YOR: Da Capo Press
!!!ODT: 1891/
!!NB: Vocal melody and text encoded
**kern	**silbe
*clefG2	*
*k[b-e-]	*
*M4/4	*
*MM92	*
=3	=3
2r	.
4r	.
8r	.
{8d	{Les
=4	=4
4dd	re^
8cc#	-ves
8cc#	se
4ccn	po-
8cc#	-sent
8cc#	sur
=5	=5
4dd	nous
12g	Un
12a	|
12b	mo-
12g	-ment,
12r	.
12d	sans
12en	pli-
12f#	-er
12g	leurs
=6	=6
4a	ai-
2b-	|
4c#	|
=7	=7
[4d	-les,
8d]}	|}
8r	.
2r	.
=8	=8
{4a	{Ils
4b-	mur-
8cc	-mu-
24b-	|
24cc	|
24b-	|
4a	-rent,
=9	=9
8r	.
8g	char-
8a	-mants
8a	et
8b-	fre^-
24a	|
24b-	|
24a	|
8g	-les
8g	Des
=10	=10
8f#	chants
8g	tre\s
8a	va-
8b-	-gues
8cc	et
24b-	tre\s
24cc	|
24b-	|
4a}	doux,}
=12	=12
{4dd	{Puis,
8g#	qu'un
8g#	vent
8a	pas-
8a	-se,
12a	l'aile
12bn	|
12a	ou-
=13	=13
4cc	-ver-
4f#	|
8g	-te
8r	.
8g	Ils
8g	re-
=14	=14
4b-	-par-
8a	-tent
8a	tou-
4f	-jours
12e-	chan
12d	|
12c	|
=15	=15
2d}	-tants,}
2r	.
=16	=16
{8g	{Et
8g	leur
8g	place
8g	est
4b-	vi-
8g	-de
8g	long-
=17	=17
2ee-	-temps,
4dd	|
8dd}	|}
8r	.
=18	=18
{4d	{Et
8d	pour
8d	long
8g	temps
8g	la^me
12a	est-
12b-	|
12g	-de/-
=19	=19
*M2/4	*
2dd	-ser-
=20	=20
*M4/4	*
[4d	-te!
8d]}	|}
8r	.
2r	.
=22	=22
2r	.
4r	.
12r	.
{12d	{Un
12d	beau
=23	=23
4dd	jour
8cc#	le
8cc#	bon-
4ccn	-heur
4cc#	nous
=24	=24
4dd	vient
12g	Sou-
12a	|
12b-	-ri-
12g	-ant,
12r	.
12d	tout
12en	ve^-
12f#	-tu
12g	de
=25	=25
4a	ro-
2b-	|
4c#	|
=26	=26
[4d	-se
8d]}	|}
8r	.
2r	.
=27	=27
{4a	{Par-
8b-	-fois
8b-	il
8cc	sem-
24b-	|
24cc	|
24b-	|
4a	-ble
=28	=28
4g	peu
4a	de
8b-	cho-
24a	|
24b-	|
24a	|
8g	-se,
8g	Quand
=29	=29
8f#	de
8g	son
8a	re^ve
8b-	on
8cc	se
24b-	sou-
24cc	|
24b-	|
4a}	-vient.}
=30	=30
2r	.
4r	.
12r	.
{12d	{Il
12d	se
=31	=31
4dd	pose
4g#	aus-
4a	-si
12a	l'aile
12bn	|
12a	ou-
=32	=32
4cc	-ver-
4f#	|
8g	-te,
8r	.
8g	Il
8g	re-
=33	=33
4b-	-part
4a	a-
4f	pre\s
12e-	quel
12d	|
12c	ques
=34	=34
[4d	jours
8d]}	|}
8r	.
2r	.
=35	=35
{8g	{Et
8g	sa
8g	place
8g	est
4b-	vi-
8g	-de
8g	tou-
=36	=36
2ee-	-jours,
[4dd	|
8dd]}	|}
8r	.
=37	=37
{4d	{Et
8d	pour
8d	tou-
8g	-jours
8g	la^me
12a	est
12b-	|
12g	de/-
=38	=38
*M2/4	*
2dd	-ser-
=39	=39
*M4/4	*
[4d	te!
8d]}	|}
8r	.
2r	.
*-	*-
